X: 1
T: Mile End Assembly    (C)
O: Walsh 1748
B: John Walsh "A Composite Music Volume" 1748
S: 2: CCD2  http://petrucci.mus.auth.gr/imglnks/usimg/5/50/IMSLP98359-PMLP202128-walsh_caledonian_country_dance_vol2.1.pdf p.43 #303
S: 4: ACMV  http://archive.org/details/acompositemusicv01rugg p.4:43 #303
Z: 2012 John Chambers <jc:trillian.mit.edu>
N: The 2nd part has a begin-repeat but no end-repeat.
M: 6/8
L: 1/8
K: C
% - - - - - - - - - - - - - - - - - - - - - - - - -
%V: 1
c/B/ |\
"C"c2G "G"E2D | "Am"CED C2c/d/ | "C"e>fe "F"Td2c | "G"Bcd G2c/d/ |\
"C"ecA "G"dBG | "Am"cAG "D"^F2d/c/ | "G"B>cd "D7"D>G^F | "G"G2G, G,2 :|
|: d/c/ |\
"G"B2d "Em"G2e/d/ | "Am"c2e "Dm"A2f | "Em"edc "E7"BA^G | "Am"A2A A2c/B/ |\
"F"Acf "Em"GBe | "Dm"FAd "Am"E2c/B/ | "F"ABc "G7"G>cB | "C"c2c c2 :|
% - - - - - - - - - - - - - - - - - - - - - - - - -
%V: 2 clef=bass middle=d
%z |\
%a3 c'3 | d'3 z3 | f3 b3 | c'3 z3 |\
%f2z e2z | d2z G2=B | c2e g2G | c3- c2 :|
%|: z |\
%z2c'/b/ a3 | z2d'/c'/ b2g | a3 A3 | d3 z3 |\
%b2e a2f | g2e f2d | B3 c3 | F3- F2 :|
% - - - - - - - - - - - - - - - - - - - - - - - - -
% %begintext align
% % First Cu. cast off, 1st Man hands round with the 3d Cu.
% % 1st Wo at the same time hands round with the 2d Cu. .|
% % First Man Heys with the 3d Cu. 1st Wo.
% % at the same time Heys with the 2d Cu. :|
% % Six hands quite round .|
% % First and 2d Cu. Right and Left quite round.
% %endtext
